X:289
T: Die Beichte (46), S. 147
N: T0178
O: Luxemburg
S: Singendes Volk, Esch-Alzette 1937 posth.]
N: Reuland, hhh Heinrich Stein, 1910
R: Liebeslieder]
M: 2/4
L: 1/8
K: G
D | GGGG | GBG2 |
AGFE | DBG2 |
DGGG | GBG2 | AAdc | B2z
B | ABAG | FED
B | ABAG | FED
D | GGGG | A2dc | B2z
D | DDDc | B2A2 | G2z

@@@ Tune index: 8343
